64x64/apps/QOwnNotes.svg

<svg xmlns="http://www.w3.org/2000/svg" width="64" height="64" version="1"><path style="opacity:.2" d="M56 5s4 0 4 4v48c0 4-4 4-4 4H24L4 41V9c0-4 4-4 4-4z"/><path style="fill:#303d75" d="M56 4s4 0 4 4v48c0 4-4 4-4 4H24L4 40V8c0-4 4-4 4-4z"/><path style="fill:#44559e" d="M4 40h17c1.656 0 3 1.344 3 3v17z"/><path style="opacity:.1;fill:#f4f4f7" d="m4 40 1 1h16c1.656 0 3 1.344 3 3v-1c0-1.656-1.344-3-3-3z"/><path style="opacity:.2" d="M32 16a10 10 0 0 0-.875.043 9.333 9.333 0 0 0-.195.023A10 10 0 0 0 22 26a10 10 0 0 0 .004.074A7 7 0 0 0 16 33a7 7 0 0 0 .004.172 6.667 6.667 0 0 0-.004.16A6.667 6.667 0 0 0 22.668 40H40a8 8 0 0 0 8-8 8 8 0 0 0-6.16-7.766 10 10 0 0 0-8.481-8.129 9.333 9.333 0 0 0-.129-.019 10 10 0 0 0-.609-.055A9.333 9.333 0 0 0 32 16zm-.02 3.002c.131.003.261.009.391.019a3 3 0 0 0 .074.004c.138.008.274.021.41.037l.016.002.018.004a3 3 0 0 0 .062.01 6.976 6.976 0 0 1 5.936 5.69 3 3 0 0 0 2.263 2.386 4.974 4.974 0 0 1 3.85 4.85A4.955 4.955 0 0 1 40 37H22.668c-2.06 0-3.666-1.605-3.668-3.664v-.004l.002-.051a3 3 0 0 0 0-.215L19 33.002v-.004a3.97 3.97 0 0 1 3.432-3.955A3 3 0 0 0 25 26.002v-.004a6.962 6.962 0 0 1 6.25-6.949 3 3 0 0 0 .068-.008l.11-.014c.183-.016.368-.023.552-.025z"/><path style="fill:#5d8cb9" d="M32 15a10 10 0 0 0-.875.043 9.333 9.333 0 0 0-.195.023A10 10 0 0 0 22 25a10 10 0 0 0 .004.074A7 7 0 0 0 16 32a7 7 0 0 0 .004.172 6.667 6.667 0 0 0-.004.16A6.667 6.667 0 0 0 22.668 39H40a8 8 0 0 0 8-8 8 8 0 0 0-6.16-7.766 10 10 0 0 0-8.481-8.129 9.333 9.333 0 0 0-.129-.019 10 10 0 0 0-.609-.055A9.333 9.333 0 0 0 32 15zm-.02 3.002c.131.003.261.009.391.019a3 3 0 0 0 .074.004c.138.008.274.021.41.037l.016.002.018.004a3 3 0 0 0 .062.01 6.976 6.976 0 0 1 5.936 5.69 3 3 0 0 0 2.263 2.386 4.974 4.974 0 0 1 3.85 4.85A4.955 4.955 0 0 1 40 36H22.668c-2.06 0-3.666-1.605-3.668-3.664v-.004l.002-.051a3 3 0 0 0 0-.215L19 32.002v-.004a3.97 3.97 0 0 1 3.432-3.955A3 3 0 0 0 25 25.002v-.004a6.962 6.962 0 0 1 6.25-6.949 3 3 0 0 0 .068-.008l.11-.014c.183-.016.368-.023.552-.025z"/><path style="opacity:.1;fill:#f4f4f7" d="M8 4S4 4 4 8v1c0-4 4-4 4-4h48s4 0 4 4V8c0-4-4-4-4-4z"/></svg>

<svg xmlns="http://www.w3.org/2000/svg" width="64" height="64" version="1">
 <path style="opacity:0.2" d="M 56,5 C 56,5 60,5 60,9 V 57 C 60,61 56,61 56,61 H 24 L 4,41 V 9 C 4,5 8,5 8,5 Z"/>
 <path style="fill:#303d75" d="M 56,4 C 56,4 60,4 60,8 V 56 C 60,60 56,60 56,60 H 24 L 4,40 V 8 C 4,4 8,4 8,4 Z"/>
 <path style="fill:#44559e" d="M 4,40 H 21 C 22.656,40 24,41.344 24,43 V 60 Z"/>
 <path style="opacity:0.1;fill:#f4f4f7" d="M 4,40 5,41 H 21 C 22.656,41 24,42.344 24,44 V 43 C 24,41.344 22.656,40 21,40 Z"/>
 <path style="opacity:0.2" d="M 32,16 A 10,10 0 0 0 31.125,16.043 9.3333,9.3333 0 0 0 30.93,16.066 10,10 0 0 0 22,26 10,10 0 0 0 22.004,26.074 7,7 0 0 0 16,33 7,7 0 0 0 16.004,33.172 6.6667,6.6667 0 0 0 16,33.332 6.6667,6.6667 0 0 0 22.668,40 H 23 40 A 8,8 0 0 0 48,32 8,8 0 0 0 41.84,24.234 10,10 0 0 0 33.359,16.105 9.3333,9.3333 0 0 0 33.23,16.086 10,10 0 0 0 32.621,16.031 9.3333,9.3333 0 0 0 32,16 Z M 31.98,19.002 C 32.111,19.005 32.241,19.011 32.371,19.021 A 3.0003,3.0003 0 0 0 32.445,19.025 C 32.583,19.033 32.719,19.046 32.855,19.062 32.861,19.063 32.866,19.064 32.871,19.064 32.877,19.065 32.883,19.067 32.889,19.068 A 3.0003,3.0003 0 0 0 32.951,19.078 C 35.965,19.492 38.346,21.774 38.887,24.768 A 3.0003,3.0003 0 0 0 41.15,27.154 C 43.416,27.69 44.992,29.676 45,32.004 44.998,34.799 42.796,37 40,37 H 23 22.668 C 20.608,37 19.002,35.395 19,33.336 V 33.332 C 19,33.315 19.001,33.298 19.002,33.281 A 3.0003,3.0003 0 0 0 19.002,33.066 C 19.001,33.045 19,33.024 19,33.002 V 32.998 C 19.003,30.989 20.443,29.329 22.432,29.043 A 3.0003,3.0003 0 0 0 25,26.002 V 25.998 C 25.005,22.401 27.673,19.434 31.25,19.049 A 3.0003,3.0003 0 0 0 31.318,19.041 C 31.355,19.036 31.391,19.031 31.428,19.027 31.611,19.011 31.796,19.004 31.98,19.002 Z"/>
 <path style="fill:#5d8cb9" d="M 32,15 A 10,10 0 0 0 31.125,15.043 9.3333,9.3333 0 0 0 30.93,15.066 10,10 0 0 0 22,25 10,10 0 0 0 22.004,25.074 7,7 0 0 0 16,32 7,7 0 0 0 16.004,32.172 6.6667,6.6667 0 0 0 16,32.332 6.6667,6.6667 0 0 0 22.668,39 H 23 40 A 8,8 0 0 0 48,31 8,8 0 0 0 41.84,23.234 10,10 0 0 0 33.359,15.105 9.3333,9.3333 0 0 0 33.23,15.086 10,10 0 0 0 32.621,15.031 9.3333,9.3333 0 0 0 32,15 Z M 31.98,18.002 C 32.111,18.005 32.241,18.011 32.371,18.021 A 3.0003,3.0003 0 0 0 32.445,18.025 C 32.583,18.033 32.719,18.046 32.855,18.062 32.861,18.063 32.866,18.064 32.871,18.064 32.877,18.065 32.883,18.067 32.889,18.068 A 3.0003,3.0003 0 0 0 32.951,18.078 C 35.965,18.492 38.346,20.774 38.887,23.768 A 3.0003,3.0003 0 0 0 41.15,26.154 C 43.416,26.69 44.992,28.676 45,31.004 44.998,33.799 42.796,36 40,36 H 23 22.668 C 20.608,36 19.002,34.395 19,32.336 V 32.332 C 19,32.315 19.001,32.298 19.002,32.281 A 3.0003,3.0003 0 0 0 19.002,32.066 C 19.001,32.045 19,32.024 19,32.002 V 31.998 C 19.003,29.989 20.443,28.329 22.432,28.043 A 3.0003,3.0003 0 0 0 25,25.002 V 24.998 C 25.005,21.401 27.673,18.434 31.25,18.049 A 3.0003,3.0003 0 0 0 31.318,18.041 C 31.355,18.036 31.391,18.031 31.428,18.027 31.611,18.011 31.796,18.004 31.98,18.002 Z"/>
 <path style="opacity:0.1;fill:#f4f4f7" d="M 8,4 C 8,4 4,4 4,8 V 9 C 4,5 8,5 8,5 H 56 C 56,5 60,5 60,9 V 8 C 60,4 56,4 56,4 Z"/>
</svg>
